z_dist/img/icons/crypto/monero-XMR.svg

<svg width="64" height="64" viewBox="0 0 64 64" fill="none" xmlns="http://www.w3.org/2000/svg">
<rect y="0.000244141" width="64" height="64" rx="4" fill="white"/>
<path d="M31.9994 6.40015C17.8639 6.40015 6.38205 17.8772 6.40005 31.9968C6.40359 34.8217 6.85415 37.5391 7.69978 40.0809H15.3597V18.5477L31.9994 35.1837L48.6383 18.5477V40.0813H56.2998C57.1467 37.5396 57.5949 34.8222 57.6 31.9972C57.6241 17.8629 46.1364 6.40355 31.9994 6.40355V6.40015Z" fill="#F26822"/>
<path d="M28.1727 39.0081L20.911 31.7476V45.2974H15.3591L10.1202 45.2984C14.614 52.6694 22.7352 57.6001 31.9994 57.6001C41.2636 57.6001 49.3852 52.6683 53.8798 45.2973H43.0861V31.7476L35.824 39.0081L31.9986 42.8328L28.173 39.0081H28.1727Z" fill="#4D4D4D"/>
</svg>

<svg width="64" height="64" fill="none" xmlns="http://www.w3.org/2000/svg"><rect width="64" height="64" rx="4" fill="#fff"/><path d="M32 6.4C17.863 6.4 6.381 17.877 6.4 31.997a25.66 25.66 0 001.3 8.084h7.66V18.548L32 35.184l16.638-16.636V40.08H56.3a25.668 25.668 0 001.3-8.084C57.624 17.863 46.136 6.404 32 6.404V6.4z" fill="#F26822"/><path d="M28.173 39.008l-7.262-7.26v13.55H10.12C14.614 52.67 22.735 57.6 32 57.6c9.264 0 17.385-4.932 21.88-12.303H43.086v-13.55l-7.262 7.261-3.825 3.825-3.826-3.825z" fill="#4D4D4D"/></svg>
